X: 25363
T: Maple Leaf, The
R: reel
M: 4/4
K: Edorian
|:~E3F G~E3|A~B3 AGED|EDEF GFGA|~B3B AGFD|
~E3F G~E3|A~B3 AGFD|E~e3 B~E3|A~B3 AGED:|
|:Beed efg2|Beed edB/c/d|Beed efge|a2eg fedA|
Beed efg2|Beed edB/c/d|a3g fedA|~B3B AGED:|

